lib/preview/nrk-logo-preview-nrk-tegnspraak-title-below.svg

<svg width="83" height="35" viewBox="0 0 83 35" fill="currentColor" xmlns="http://www.w3.org/2000/svg">
<path d="M0 13V1.00109H3.93719V13H0ZM9.29381 2.91078L11.5581 13H7.24917L4.54549 1.00109H6.96218C7.51635 0.993898 8.05406 1.18925 8.4745 1.55039C8.89562 1.89638 9.18495 2.3767 9.29381 2.91078ZM12.1495 13V1.00109H16.0867V13H12.1495ZM19.0605 5.5641C18.6362 5.56824 18.2188 5.45723 17.8525 5.24296C17.4912 5.03412 17.1911 4.73396 16.9823 4.3726C16.7678 4.00633 16.6568 3.58876 16.661 3.16432C16.6561 2.74246 16.7672 2.32738 16.9823 1.96443C17.1933 1.60699 17.4931 1.31009 17.8525 1.10252C18.2189 0.888502 18.6362 0.777515 19.0605 0.781384C19.4822 0.776842 19.8971 0.887929 20.2602 1.10252C20.616 1.31191 20.9127 1.60856 21.122 1.96443C21.3368 2.32748 21.4479 2.74249 21.4433 3.16432C21.4473 3.58873 21.3363 4.00623 21.122 4.3726C20.9149 4.73238 20.6179 5.03228 20.2602 5.24296C19.8971 5.45798 19.4819 5.56909 19.0599 5.5641H19.0605ZM22.0516 13V1.00109H25.9892V13H22.0516ZM30.9737 7.55823C30.9848 7.56988 31.0693 7.70788 31.2272 7.97227C31.3851 8.23666 31.5906 8.57468 31.8439 8.98629C32.0974 9.39771 32.3649 9.83426 32.6463 10.296C32.9278 10.7577 33.1926 11.1944 33.4408 11.6058C33.6881 12.0172 33.9697 12.4819 34.2857 13H29.9598C29.6893 12.5606 29.4441 12.1635 29.2245 11.8086C29.0048 11.4537 28.7713 11.0706 28.5238 10.6594C28.2758 10.2485 28.0306 9.84854 27.7882 9.45947C27.5458 9.07039 27.3375 8.72961 27.1633 8.43706C26.9883 8.14432 26.8671 7.94712 26.7997 7.84554C26.6325 7.59344 26.5336 7.30229 26.5127 7.00054C26.5294 6.71094 26.6226 6.43098 26.7828 6.18911C26.8504 6.07645 26.9743 5.87643 27.1545 5.58913C27.3348 5.30183 27.546 4.96105 27.7882 4.56672C28.0304 4.17239 28.2756 3.7696 28.5238 3.35837C28.772 2.94715 29.0056 2.56124 29.2245 2.20071C29.4445 1.84055 29.6897 1.44059 29.9598 1.00081H34.2857L30.9396 6.4595C30.8361 6.62157 30.7777 6.80835 30.7706 7.00054C30.7818 7.20232 30.8522 7.39632 30.9731 7.55823H30.9737Z"/>
<path d="M0 19.6159H3.87822V30.1498H5.65643V19.6159H9.51801V18.1256H0V19.6159Z"/>
<path d="M17.6809 22.6051C17.3559 22.1837 16.9269 21.854 16.4362 21.6482C15.8909 21.4257 15.3061 21.3162 14.7172 21.3264C14.124 21.3164 13.5353 21.4318 12.9898 21.6652C12.4936 21.8824 12.0513 22.2062 11.6942 22.6135C11.3264 23.0415 11.0497 23.5399 10.881 24.0785C10.6881 24.6948 10.5938 25.3379 10.6019 25.9837C10.5779 26.7997 10.7491 27.6097 11.1012 28.3462C11.4231 28.9844 11.943 29.5013 12.5831 29.8196C13.3342 30.1734 14.1583 30.3446 14.9882 30.3192C15.3874 30.3226 15.7863 30.2972 16.1818 30.243C16.5125 30.1954 16.8383 30.1189 17.1556 30.0143C17.4703 29.9088 17.7762 29.7785 18.0704 29.6248L18.189 28.3208C17.9743 28.3998 17.7569 28.4789 17.5367 28.5579C17.3165 28.6369 17.0879 28.7075 16.8508 28.7696C16.6116 28.8322 16.3683 28.8775 16.1226 28.9051C15.8753 28.9332 15.6266 28.9474 15.3777 28.9474C14.933 28.9546 14.4891 28.9062 14.0564 28.8035C13.7074 28.7201 13.3845 28.5513 13.1168 28.3123C12.8461 28.0547 12.6475 27.7306 12.541 27.3724C12.4303 27.0096 12.3682 26.6338 12.3564 26.2547H18.4766C18.5599 25.5543 18.5285 24.845 18.3835 24.1547C18.2644 23.5933 18.0247 23.0645 17.6809 22.6051ZM13.4132 23.0115C13.8105 22.7703 14.2693 22.6497 14.7339 22.6643C15.199 22.6411 15.6584 22.7753 16.0379 23.0454C16.3753 23.3145 16.616 23.686 16.7238 24.1039C16.8082 24.4128 16.8498 24.7319 16.8474 25.0522H12.3934C12.425 24.7146 12.4972 24.3819 12.6085 24.0615C12.7531 23.6321 13.0361 23.2628 13.4132 23.0115Z"/>
<path d="M26.0214 21.5466C25.7627 21.4758 25.4996 21.422 25.2338 21.3857C24.9306 21.345 24.625 21.3251 24.3191 21.3264C23.7666 21.3242 23.2193 21.4336 22.7102 21.6482C22.2 21.8642 21.7369 22.1777 21.3469 22.5712C20.9312 22.9955 20.6108 23.5036 20.407 24.0615C20.1707 24.7155 20.0559 25.407 20.0683 26.1022C20.0497 26.867 20.1969 27.6268 20.4998 28.3293C20.7654 28.93 21.205 29.4374 21.7618 29.7857C22.3711 30.1451 23.0698 30.3243 23.7768 30.3022C24.398 30.3 25.013 30.1793 25.5889 29.9466C25.9331 29.8064 26.2576 29.622 26.5543 29.3982V29.8619C26.5612 30.2435 26.507 30.6237 26.3937 30.9881C26.2959 31.2938 26.1276 31.5723 25.9025 31.801C25.6598 32.034 25.3629 32.2028 25.0386 32.2922C24.6167 32.408 24.1803 32.4622 23.743 32.453C23.3951 32.4525 23.0475 32.4327 22.7017 32.3938C22.3386 32.3527 21.9791 32.2848 21.626 32.1906C21.2625 32.0937 20.906 31.972 20.5591 31.8264L20.7454 33.3168C21.0568 33.4431 21.3766 33.5478 21.7025 33.6301C22.0452 33.7166 22.393 33.7816 22.7438 33.8248C23.1146 33.8704 23.4879 33.8931 23.8615 33.8926C24.695 33.9187 25.5235 33.7536 26.2833 33.4099C26.9002 33.1226 27.4165 32.6565 27.7651 32.072C28.1063 31.4713 28.279 30.7897 28.265 30.099V21.3264L26.6084 21.7527C26.4173 21.6717 26.2212 21.6029 26.0214 21.5466ZM26.3344 28.3293C26.1246 28.4512 25.9068 28.5587 25.6824 28.651C25.4847 28.7322 25.2808 28.7974 25.0727 28.8458C24.87 28.8917 24.6627 28.9144 24.4548 28.9135C23.9461 28.9319 23.4413 28.8182 22.9896 28.5833C22.5961 28.3587 22.2914 28.006 22.1262 27.5841C21.9221 27.0348 21.8271 26.4509 21.8468 25.8652C21.8391 25.3977 21.9048 24.932 22.0413 24.4849C22.1522 24.1174 22.3431 23.7791 22.6004 23.4942C22.8509 23.2293 23.1574 23.0239 23.4977 22.893C23.8843 22.7465 24.2952 22.6746 24.7086 22.6813C24.9754 22.6811 25.2418 22.7037 25.5048 22.749C25.7741 22.7966 26.04 22.8616 26.3008 22.9438C26.3838 22.9697 26.4702 23.0042 26.5548 23.0358V28.1989C26.4803 28.2435 26.4044 28.2892 26.3344 28.3293Z"/>
<path d="M37.5287 21.6821C37.0256 21.428 36.4662 21.3056 35.9029 21.3264C35.4114 21.3274 34.9229 21.4045 34.4549 21.5551C33.9727 21.7087 33.514 21.9281 33.0917 22.2071C32.9282 22.3146 32.771 22.4329 32.6174 22.5543V21.3434L30.89 21.5974V30.1498H32.6174V23.7177C32.7847 23.6198 32.9571 23.531 33.134 23.4518C33.3719 23.3465 33.6149 23.2533 33.8622 23.1724C34.1001 23.0947 34.3435 23.0352 34.5904 22.9946C34.8227 22.9559 35.0578 22.9361 35.2932 22.9353C35.5696 22.9289 35.8449 22.9719 36.1062 23.0623C36.3217 23.14 36.514 23.2711 36.665 23.4434C36.8205 23.6302 36.9307 23.8504 36.9868 24.0869C37.059 24.3863 37.0931 24.6935 37.0884 25.0014V30.1498H38.8158V24.6458C38.8384 24.0038 38.7288 23.3639 38.494 22.7659C38.3028 22.3067 37.9628 21.925 37.5287 21.6821Z"/>
<path d="M46.7244 26.2547C46.551 26.0709 46.3512 25.914 46.1317 25.7889C45.9043 25.6588 45.6663 25.5483 45.4201 25.4587C45.2395 25.4022 45.0616 25.343 44.8866 25.2809C44.7116 25.2188 44.5366 25.1623 44.3616 25.1115C44.1866 25.0607 44.0173 25.0071 43.8536 24.9506C43.7001 24.8984 43.5502 24.8361 43.4048 24.7643C43.2656 24.6904 43.1325 24.6055 43.0068 24.5103C42.8908 24.4229 42.7931 24.3136 42.7192 24.1885C42.6444 24.0601 42.6063 23.9137 42.6088 23.7651C42.6043 23.6019 42.6454 23.4406 42.7276 23.2994C42.816 23.1608 42.9385 23.0471 43.0833 22.9692C43.2604 22.8718 43.4519 22.8032 43.6506 22.7659C43.899 22.7183 44.1514 22.6956 44.4043 22.6982C44.5282 22.6982 44.6636 22.7041 44.8107 22.7151C44.9578 22.7261 45.1181 22.7465 45.2934 22.7744C45.4687 22.8024 45.6431 22.8396 45.8181 22.8845C45.9931 22.9294 46.1709 22.9805 46.3519 23.0369C46.5193 23.0884 46.6832 23.1506 46.8427 23.2232L46.9615 21.8514C46.7468 21.7611 46.5351 21.6821 46.3264 21.6143C46.1179 21.5467 45.9059 21.4902 45.6913 21.445C45.4818 21.4006 45.2697 21.3695 45.0563 21.3518C44.8472 21.3349 44.6412 21.3264 44.4381 21.3264C43.9703 21.3216 43.5037 21.3757 43.0494 21.4873C42.6608 21.5817 42.2914 21.7421 41.9571 21.9615C41.6539 22.162 41.4063 22.4358 41.2373 22.7575C41.0603 23.112 40.9731 23.5045 40.9833 23.9006C40.9781 24.1859 41.0241 24.4699 41.1191 24.7389C41.1993 24.9648 41.3198 25.1742 41.4747 25.3571C41.6253 25.5298 41.7991 25.6809 41.9912 25.8059C42.1912 25.9371 42.404 26.0477 42.6263 26.1361C42.7503 26.1813 42.8801 26.2264 43.0158 26.2716C43.1515 26.3168 43.2842 26.3591 43.4138 26.3986C43.5434 26.4384 43.6704 26.4776 43.7946 26.5172C43.9188 26.5567 44.0402 26.5962 44.1587 26.6357C44.2773 26.6752 44.393 26.7119 44.5062 26.7458C44.6576 26.7995 44.8046 26.8646 44.9462 26.9405C45.0705 27.0063 45.1871 27.0859 45.2937 27.1776C45.3874 27.2595 45.4623 27.3606 45.5135 27.474C45.5655 27.5913 45.5916 27.7183 45.59 27.8466C45.596 27.9719 45.5741 28.0969 45.5257 28.2127C45.4773 28.3284 45.4037 28.4318 45.3103 28.5155C45.1007 28.6908 44.8502 28.8102 44.5821 28.8627C44.268 28.9321 43.9472 28.9662 43.6255 28.9643C43.4244 28.963 43.2236 28.9488 43.0243 28.922C42.8041 28.8941 42.5727 28.8546 42.33 28.8034C42.0872 28.7523 41.8387 28.6902 41.5845 28.6172C41.3307 28.544 41.0739 28.4621 40.8142 28.3716L40.882 29.8111C41.1751 29.9127 41.4433 29.9946 41.6864 30.0567C41.9295 30.1188 42.161 30.1724 42.3807 30.2176C42.5929 30.2615 42.808 30.2898 43.0243 30.3022C43.233 30.3135 43.4447 30.3192 43.6594 30.3192C44.1316 30.3216 44.6028 30.2733 45.0647 30.1752C45.4714 30.0925 45.8609 29.9408 46.2163 29.7264C46.5367 29.5309 46.802 29.2569 46.9872 28.9305C47.1811 28.5721 47.2773 28.1692 47.2664 27.7619C47.2734 27.4647 47.2246 27.1689 47.1224 26.8897C47.0315 26.6546 46.8964 26.439 46.7244 26.2547Z"/>
<path d="M55.8272 21.8599C55.2194 21.4877 54.5157 21.3022 53.8034 21.3264C53.3807 21.3285 52.9598 21.3825 52.5502 21.4873C52.1075 21.5998 51.6808 21.7677 51.2801 21.9869C51.2005 22.0301 51.1217 22.0781 51.043 22.1266V21.3434L49.3156 21.6143V33.7063H51.043V29.9147C51.0546 29.9195 51.0653 29.9248 51.0769 29.9296C51.3897 30.0597 51.7164 30.1534 52.0506 30.2091C52.4452 30.2742 52.8447 30.3053 53.2446 30.3022C54.0071 30.3153 54.7589 30.1222 55.4208 29.7434C56.0706 29.3581 56.5989 28.7976 56.945 28.126C57.345 27.3254 57.5399 26.4379 57.5123 25.5434C57.5281 24.787 57.3809 24.0361 57.0808 23.3418C56.8156 22.7366 56.3801 22.2217 55.8272 21.8599ZM55.3785 27.5248C55.175 27.9746 54.834 28.3482 54.4047 28.5917C53.9274 28.8417 53.3936 28.9642 52.8551 28.9474C52.5971 28.9475 52.3394 28.9277 52.0845 28.8881C51.817 28.8454 51.5536 28.7803 51.297 28.6934C51.2157 28.6651 51.1277 28.633 51.043 28.6019V23.2574C51.0656 23.2469 51.0884 23.2334 51.1107 23.2232C51.3587 23.1103 51.5902 23.0143 51.8051 22.9353C52.0082 22.8595 52.218 22.8028 52.4317 22.7659C52.6219 22.7332 52.8145 22.7162 53.0075 22.7151C53.5296 22.6978 54.0477 22.8114 54.5147 23.0454C54.9231 23.2677 55.2429 23.6234 55.4208 24.053C55.6362 24.6026 55.7372 25.1905 55.7174 25.7804C55.7353 26.3799 55.6196 26.9757 55.3785 27.5248Z"/>
<path d="M63.1513 21.4529C62.8346 21.5378 62.5322 21.669 62.254 21.8424C61.965 22.0227 61.6978 22.2358 61.4577 22.4775C61.4179 22.5173 61.379 22.5622 61.3395 22.6042V21.3428L59.6117 21.5968V30.1493H61.3395V23.751C61.4679 23.6614 61.6007 23.5783 61.7374 23.5021C61.9069 23.4088 62.0822 23.3268 62.2624 23.2565C62.4372 23.1888 62.6151 23.1295 62.7959 23.0787C62.9817 23.027 63.1713 22.9902 63.363 22.9686C63.5683 22.9458 63.7752 22.9401 63.9814 22.9517L64.1846 21.3597C63.8374 21.3348 63.4884 21.3663 63.1513 21.4529Z"/>
<path d="M73.0927 29.0829C72.9689 29.0942 72.8442 29.0755 72.7292 29.0283C72.6142 28.9812 72.5123 28.9069 72.4322 28.8119C72.2751 28.5406 72.2098 28.2258 72.2459 27.9143L72.2798 24.4256C72.2835 24.0599 72.2379 23.6953 72.1443 23.3418C72.062 23.0317 71.9243 22.7391 71.7379 22.478C71.5495 22.2228 71.3102 22.0094 71.035 21.8514C70.7154 21.67 70.3699 21.5386 70.0104 21.4619C69.5709 21.367 69.1222 21.3215 68.6725 21.3264C68.3158 21.3263 67.9594 21.3489 67.6056 21.3942C67.2713 21.4362 66.9402 21.5013 66.6149 21.5889C66.3131 21.6708 66.0163 21.7697 65.7257 21.8853L65.5225 23.3248C65.8048 23.2232 66.0729 23.1385 66.327 23.0708C66.581 23.003 66.8265 22.9466 67.0636 22.9014C67.296 22.857 67.5306 22.8259 67.7665 22.8083C67.9977 22.7913 68.2264 22.7829 68.4524 22.7829C68.7977 22.7756 69.1424 22.8155 69.477 22.9014C69.721 22.9625 69.9455 23.0849 70.129 23.2571C70.2923 23.4245 70.4091 23.6318 70.4677 23.8583C70.5399 24.1375 70.5741 24.4252 70.5693 24.7135L70.5673 25.1386L68.5878 25.2724C67.9108 25.2912 67.2437 25.4407 66.6233 25.7127C66.1591 25.9158 65.7583 26.2406 65.4633 26.6526C65.213 27.0193 65.08 27.4534 65.0822 27.8974C65.079 28.314 65.181 28.7246 65.3786 29.0914C65.5858 29.4681 65.8975 29.7768 66.2762 29.9805C66.7382 30.2208 67.2545 30.3375 67.7749 30.3192C68.2626 30.3304 68.748 30.25 69.206 30.0821C69.6019 29.927 69.9642 29.697 70.2729 29.4047C70.3901 29.2923 70.5013 29.1739 70.606 29.0498C70.6389 29.2252 70.7009 29.3938 70.7895 29.5486C70.9404 29.8079 71.1725 30.0102 71.4499 30.1244C71.7566 30.2476 72.0849 30.308 72.4153 30.3022C72.5169 30.3022 72.6157 30.2994 72.7116 30.2938C72.8059 30.2881 72.8994 30.2739 72.9911 30.2514C73.0814 30.2286 73.163 30.2091 73.2366 30.1921C73.3029 30.1773 73.3681 30.1575 73.4314 30.1329L73.6177 28.9982C73.5242 29.0303 73.4278 29.053 73.3298 29.0659C73.2512 29.0764 73.172 29.0821 73.0927 29.0829ZM70.2729 28.3208C70.0894 28.466 69.8906 28.5909 69.6802 28.6934C69.4706 28.7951 69.2487 28.8692 69.02 28.9135C68.7827 28.9592 68.5416 28.9819 68.2999 28.9813C68.0239 28.9891 67.7495 28.9372 67.4955 28.8289C67.2889 28.7391 67.1146 28.5885 66.9959 28.397C66.8786 28.194 66.82 27.9624 66.8266 27.728C66.8102 27.4457 66.8876 27.1659 67.0467 26.9321C67.2311 26.7169 67.481 26.5681 67.758 26.5087C68.1907 26.4067 68.6347 26.3612 69.079 26.3732H70.562L70.5544 28.0541C70.4684 28.1509 70.3742 28.2401 70.2729 28.3208Z"/>
<path d="M67.6818 19.9716C68.0018 20.123 68.3524 20.1983 68.7064 20.1917C69.0695 20.1989 69.4291 20.1206 69.7564 19.9631C70.0514 19.8196 70.3007 19.5968 70.4762 19.3196C70.657 19.0214 70.7482 18.6775 70.7386 18.3289C70.7495 18.076 70.7051 17.8238 70.6086 17.5898C70.5121 17.3558 70.3657 17.1457 70.1798 16.974C69.7828 16.6264 69.2675 16.4445 68.7403 16.4659C68.3875 16.4619 68.038 16.5342 67.7157 16.6776C67.413 16.8123 67.1568 17.0332 66.979 17.3127C66.7905 17.6235 66.6963 17.9824 66.708 18.3458C66.6962 18.6973 66.7874 19.0446 66.9705 19.345C67.1451 19.6156 67.3913 19.8325 67.6818 19.9716ZM67.9527 17.5329C68.0597 17.4381 68.1843 17.3654 68.3195 17.3189C68.4546 17.2724 68.5976 17.253 68.7403 17.2619C68.9502 17.2524 69.1586 17.3023 69.3415 17.4059C69.4894 17.4968 69.6072 17.6294 69.6802 17.7869C69.7561 17.9573 69.7937 18.1423 69.7902 18.3289C69.7936 18.5163 69.753 18.7019 69.6717 18.8708C69.5952 19.0265 69.4744 19.1561 69.3245 19.2434C69.1399 19.3415 68.9322 19.3883 68.7233 19.3788C68.5247 19.3847 68.3276 19.3441 68.1475 19.2603C67.9925 19.1849 67.8673 19.0597 67.7919 18.9047C67.7081 18.7245 67.6675 18.5274 67.6733 18.3289C67.6629 18.1841 67.6824 18.0388 67.7304 17.9019C67.7785 17.7649 67.8542 17.6394 67.9527 17.5329Z"/>
<path d="M80.4424 30.1498H82.6779L78.5699 25.5208L82.5932 21.5127H80.4763L77.5783 24.6966H76.9537V17.3635L75.2263 17.6176V30.1498H76.9537V26.0006H76.9819L80.4424 30.1498Z"/>
</svg>

<svg xmlns="http://www.w3.org/2000/svg" fill="currentColor" viewBox="0 0 83 35"><path d="M0 13V1.001h3.937V13H0ZM9.294 2.91 11.558 13H7.25L4.545 1.001h2.417a2.276 2.276 0 0 1 1.513.55c.42.345.71.826.819 1.36ZM12.149 13V1.001h3.938V13h-3.938Zm6.912-7.436a2.382 2.382 0 0 1-2.4-2.4 2.301 2.301 0 0 1 .321-1.2 2.41 2.41 0 0 1 3.278-.861c.356.209.653.506.862.861.215.363.326.778.321 1.2a2.35 2.35 0 0 1-.321 1.209 2.4 2.4 0 0 1-.862.87 2.302 2.302 0 0 1-1.2.321ZM22.05 13V1.001h3.938V13h-3.937Zm8.923-5.442c.01.012.095.15.253.414.158.265.364.603.617 1.014a314.643 314.643 0 0 1 1.597 2.62c.247.411.529.876.845 1.394H29.96c-.27-.44-.516-.836-.736-1.191-.22-.355-.453-.738-.7-1.15-.248-.41-.493-.81-.736-1.2-.242-.389-.45-.73-.625-1.022a17.98 17.98 0 0 0-.363-.591A1.747 1.747 0 0 1 26.513 7c.016-.29.11-.57.27-.812.067-.113.191-.313.371-.6s.392-.628.634-1.022c.242-.395.488-.797.736-1.209a516 516 0 0 1 .7-1.157L29.96 1h4.326L30.94 6.46a1.08 1.08 0 0 0-.17.54c.012.202.082.396.203.558ZM0 19.616h3.878V30.15h1.778V19.616h3.862v-1.49H0v1.49ZM17.68 22.605a3.073 3.073 0 0 0-1.244-.957 4.35 4.35 0 0 0-1.719-.322 4.21 4.21 0 0 0-1.727.34 3.692 3.692 0 0 0-1.296.947 4.152 4.152 0 0 0-.813 1.465 6.122 6.122 0 0 0-.28 1.906 5.128 5.128 0 0 0 .5 2.362 3.31 3.31 0 0 0 1.482 1.474 5.266 5.266 0 0 0 2.405.5c.4.003.798-.023 1.194-.077.33-.048.656-.124.974-.229.314-.105.62-.235.914-.39l.119-1.303-.652.237a8.13 8.13 0 0 1-.686.212c-.24.062-.483.108-.728.135a6.598 6.598 0 0 1-.745.042 5.347 5.347 0 0 1-1.322-.143 2.167 2.167 0 0 1-.94-.492 2.14 2.14 0 0 1-.575-.94 4.287 4.287 0 0 1-.185-1.117h6.12c.084-.7.053-1.41-.092-2.1a3.957 3.957 0 0 0-.703-1.55Zm-4.267.407a2.4 2.4 0 0 1 1.32-.348 2.07 2.07 0 0 1 1.305.381c.337.27.578.641.686 1.059.084.309.126.628.123.948h-4.454c.032-.337.104-.67.215-.99.145-.43.428-.8.805-1.05ZM26.021 21.547a6.122 6.122 0 0 0-.787-.161 6.662 6.662 0 0 0-.915-.06 4.1 4.1 0 0 0-1.609.322c-.51.216-.973.53-1.363.923a4.178 4.178 0 0 0-.94 1.49 5.706 5.706 0 0 0-.339 2.041 5.3 5.3 0 0 0 .432 2.227c.265.601.705 1.108 1.262 1.457.61.36 1.308.538 2.015.516a4.883 4.883 0 0 0 1.812-.355c.344-.14.669-.325.965-.549v.464c.007.382-.047.762-.16 1.126a2.049 2.049 0 0 1-.491.813c-.243.233-.54.402-.864.491-.422.116-.859.17-1.296.161-.348 0-.695-.02-1.041-.06a7.403 7.403 0 0 1-1.076-.202 8.243 8.243 0 0 1-1.067-.365l.186 1.49c.312.127.632.232.957.314a8.5 8.5 0 0 0 1.042.195c.37.045.744.068 1.117.068a5.461 5.461 0 0 0 2.422-.483 3.393 3.393 0 0 0 1.482-1.338c.341-.6.514-1.282.5-1.973v-8.773l-1.657.427a4.932 4.932 0 0 0-.587-.206Zm.313 6.782c-.21.122-.427.23-.652.322a3.975 3.975 0 0 1-.61.195c-.202.046-.41.068-.617.067a2.945 2.945 0 0 1-1.465-.33 1.983 1.983 0 0 1-.864-.999 4.5 4.5 0 0 1-.28-1.719 4.475 4.475 0 0 1 .195-1.38c.111-.368.302-.706.56-.99.25-.266.556-.471.897-.602a3.268 3.268 0 0 1 1.21-.212c.267 0 .534.023.797.068.27.048.535.113.796.195.083.026.17.06.254.092v5.163c-.075.044-.15.09-.22.13ZM37.529 21.682a3.334 3.334 0 0 0-1.626-.356c-.492.001-.98.078-1.448.23-.482.153-.941.372-1.363.651-.164.108-.321.226-.475.347v-1.21l-1.727.253v8.553h1.727v-6.432c.168-.098.34-.187.517-.266a7.76 7.76 0 0 1 .728-.28c.238-.077.481-.137.728-.177.233-.04.468-.059.703-.06.277-.006.552.037.813.127.216.078.408.21.559.381.156.187.266.407.322.644.072.3.106.607.101.914v5.149h1.728v-5.504a4.692 4.692 0 0 0-.322-1.88 2.22 2.22 0 0 0-.965-1.084ZM46.724 26.255a2.552 2.552 0 0 0-.592-.466 4.603 4.603 0 0 0-.712-.33c-.18-.057-.358-.116-.533-.178a9.435 9.435 0 0 0-.525-.17 10.7 10.7 0 0 1-.508-.16 3.715 3.715 0 0 1-.45-.187 2.951 2.951 0 0 1-.397-.254 1.11 1.11 0 0 1-.288-.322.814.814 0 0 1-.11-.423.878.878 0 0 1 .119-.466.963.963 0 0 1 .355-.33c.177-.097.369-.166.568-.203.248-.048.5-.07.753-.068a5.492 5.492 0 0 1 .89.076c.175.028.35.066.524.11.175.045.353.096.534.153.167.051.331.114.49.186l.12-1.372a8.073 8.073 0 0 0-.636-.237 6.207 6.207 0 0 0-.635-.169 5.094 5.094 0 0 0-.635-.093 7.671 7.671 0 0 0-.618-.026 5.581 5.581 0 0 0-1.389.161 3.494 3.494 0 0 0-1.092.475c-.303.2-.55.474-.72.796a2.42 2.42 0 0 0-.254 1.143c-.005.285.041.569.136.838.08.226.2.435.356.618.15.173.324.324.516.449.2.131.413.242.635.33a14.742 14.742 0 0 0 .788.263 37.475 37.475 0 0 1 .745.237c.118.04.234.076.347.11.152.053.299.119.44.195.125.065.241.145.348.237a.868.868 0 0 1 .296.669.844.844 0 0 1-.28.668 1.62 1.62 0 0 1-.728.348c-.314.07-.635.103-.956.101a4.741 4.741 0 0 1-.602-.042 8.62 8.62 0 0 1-.694-.119 10.648 10.648 0 0 1-.745-.186c-.254-.073-.511-.155-.77-.245l.067 1.44c.293.1.561.183.804.245s.475.115.695.16c.212.045.427.073.643.085.209.012.42.017.635.017.473.003.944-.046 1.406-.144a3.63 3.63 0 0 0 1.151-.449c.32-.195.586-.47.771-.796.194-.358.29-.76.28-1.168a2.374 2.374 0 0 0-.145-.872 1.974 1.974 0 0 0-.398-.635ZM55.827 21.86a3.639 3.639 0 0 0-2.024-.534 5.16 5.16 0 0 0-1.253.161 5.436 5.436 0 0 0-1.507.64v-.784l-1.727.271v12.092h1.727v-3.791l.034.015c.313.13.64.223.974.28.394.064.794.095 1.194.092a4.235 4.235 0 0 0 2.176-.559 4.023 4.023 0 0 0 1.524-1.617c.4-.8.595-1.688.567-2.583a5.272 5.272 0 0 0-.431-2.201 3.403 3.403 0 0 0-1.254-1.482Zm-.448 5.665c-.204.45-.545.823-.974 1.067a3.13 3.13 0 0 1-1.55.355 4.827 4.827 0 0 1-1.812-.345v-5.345c.023-.01.045-.024.068-.034.248-.113.48-.209.694-.288a3.49 3.49 0 0 1 1.203-.22 3.133 3.133 0 0 1 1.507.33c.408.223.728.578.906 1.008.215.55.316 1.137.296 1.727.018.6-.097 1.196-.338 1.745ZM63.151 21.453c-.316.085-.619.216-.897.39a4.42 4.42 0 0 0-.796.634c-.04.04-.079.085-.118.127v-1.261l-1.728.254v8.552h1.727v-6.398a4.42 4.42 0 0 1 .923-.495c.175-.067.353-.127.534-.177a3.632 3.632 0 0 1 1.185-.127l.204-1.592a3.226 3.226 0 0 0-1.034.093ZM73.093 29.083a.772.772 0 0 1-.66-.271 1.457 1.457 0 0 1-.187-.898l.034-3.488a4.074 4.074 0 0 0-.136-1.084 2.662 2.662 0 0 0-.406-.864 2.293 2.293 0 0 0-.703-.627 3.596 3.596 0 0 0-1.025-.39 6.027 6.027 0 0 0-1.338-.135c-.356 0-.713.023-1.066.068a7.32 7.32 0 0 0-.991.195c-.302.082-.599.18-.89.296l-.203 1.44a9.947 9.947 0 0 1 1.542-.424c.232-.044.467-.075.703-.093.23-.017.46-.025.685-.025.346-.007.69.032 1.025.118.244.061.468.184.652.356.163.167.28.375.339.601.072.28.106.567.101.855l-.002.426-1.98.133a5.256 5.256 0 0 0-1.964.44 2.814 2.814 0 0 0-1.16.94c-.25.367-.383.801-.38 1.245-.004.417.098.828.296 1.194.207.377.518.686.897.89.462.24.978.356 1.499.338.488.011.973-.069 1.431-.237a3.305 3.305 0 0 0 1.067-.677c.117-.113.228-.231.333-.355.033.175.095.344.184.499.15.259.382.461.66.575.307.124.635.184.965.178.102 0 .2-.003.297-.008a1.57 1.57 0 0 0 .28-.043l.245-.059a1.35 1.35 0 0 0 .194-.06l.187-1.134c-.094.032-.19.055-.288.068-.079.01-.158.016-.237.017Zm-2.82-.762c-.184.145-.382.27-.593.372a2.68 2.68 0 0 1-.66.22 3.758 3.758 0 0 1-.72.068 1.913 1.913 0 0 1-.804-.152c-.207-.09-.381-.24-.5-.432a1.266 1.266 0 0 1-.17-.669 1.283 1.283 0 0 1 .22-.796c.185-.215.435-.364.712-.423a5.151 5.151 0 0 1 1.321-.136h1.483l-.008 1.681a2.26 2.26 0 0 1-.281.267ZM67.682 19.972c.32.151.67.226 1.024.22.364.007.723-.071 1.05-.229.295-.143.545-.366.72-.643.181-.299.272-.643.263-.991a1.742 1.742 0 0 0-.56-1.355 2.058 2.058 0 0 0-1.439-.508 2.452 2.452 0 0 0-1.024.212 1.685 1.685 0 0 0-.737.635c-.189.31-.283.67-.271 1.033-.012.351.08.699.263.999.174.27.42.488.71.627Zm.27-2.44a1.085 1.085 0 0 1 .788-.27c.21-.01.419.04.602.144.147.09.265.223.338.38.076.171.114.356.11.543a1.2 1.2 0 0 1-.118.542.88.88 0 0 1-.347.372 1.168 1.168 0 0 1-.602.136 1.275 1.275 0 0 1-.576-.119.77.77 0 0 1-.355-.355 1.277 1.277 0 0 1-.119-.576 1.06 1.06 0 0 1 .28-.796ZM80.442 30.15h2.236l-4.108-4.63 4.023-4.007h-2.117l-2.898 3.184h-.624v-7.334l-1.728.255V30.15h1.728V26h.028l3.46 4.15Z"/></svg>
